X:1
T:On Calvary (MacGill)
T:On Calvary (MacGill)
T:Jacob Wakefield MacGill
T:Jacob Wakefield MacGill (1829-1902)
T:Public Domain Courtesy of the Cyber Hymnal™
T:Public Domain Courtesy of the Cyber Hymnal™
C:Jacob Wakefield MacGill
Z:Public Domain
Z:Courtesy of the Cyber Hymnal™
%%score ( 1 2 ) ( 3 4 )
L:1/8
Q:1/4=100
M:3/4
K:F
V:1 treble 
V:2 treble 
V:3 bass 
V:4 bass 
V:1
"^Solo" C2 | [CF][CF] [CF][CF] [CE][CE] | [B,D][B,D] C2!pp! [CF]2"^Quartet" | %3
w: 1.~It|pleased the Lord to bruise His|on- ly Son On|
w: 2.~Al-|though the pierc- ing wail went|up on high From|
w: 3.~And|canst thou, sin- ner, stand be-|neath the cross Of|
w: 4.~The|cross un- folds the won- drous|love di- vine On|
 [CF][CE] [CE]2 z ([cec'] | [egc'][egb] [egb]2)!mf!"^Solo" C2 | [EG][EG] [EG][EG] FF | %6
w: Cal- va- ry, *|* * * That|He might ran- som sin- ners|
w: Cal- va- ry, *|* * * “My|God, O why hast Thou for-|
w: Cal- va- ry, *|* * * To|see His life’s blood drop- ping|
w: Cal- va- ry, *|* * * And|shows in woe love’s ma- jes-|
 [CE]D [CE]2"^Quartet"!pp! [GB]2 | [FA][F^G] [FA]2 z ([db] | [cac'][=Bg_b] [cac']2)!mf! C2 | %9
w: such as you, And|set you free; *|* * * He|
w: sak- en Me On|Cal- va- ry?” *|* * * The|
w: sure- ly down Un-|heed- ing- ly; *|* * * And|
w: ty su- preme On|Cal- va- ry; *|* * * Then|
"^Solo" [Ac][Ac] [Ac][Ac] [Gd][Ac] | [GB][FA] [EG]2!pp! F2"^Quartet" | [DA][DG] [DG]2 z ([dd'] | %12
w: hid His face from Je- sus,|whom He loved So|ten- der- ly, *|
w: heav’ns re- turned nor ech- o,|groan nor sigh On|that dark day, *|
w: treat His cru- el suf- fer-|ing as dross On|Cal- va- ry, *|
w: yield to Him that bur- dened|heart of thine At|Cal- va- ry, *|
 [ebe'][dbd'] [dbd']2)!mf!"^Solo" D2 | [Gc][GB] [GB][GB] [Ac][GB] | [GB]D D2!pp! [CE]2"^Quartet" | %15
w: * * * With|all His heart in yearn- ings|deep and true On|
w: * * * And|all that He might free- ly|par- don me On|
w: * * * While|He is wear- ing sor- row’s|hea- vy crown In|
w: * * * And|then the cross will be thy|theme through- out E-|
 [EG]F [CF]2 |] %16
w: Cal- va- ry.|
w: Cal- va- ry.|
w: ag- o- ny?|
w: ter- ni- ty.|
V:2
 C2 | x6 | x2 C2 x2 | x6 | x4 C2 | x4 FF | x D x4 | x6 | x4 C2 | x6 | x4 F2 | x6 | x4 D2 | x6 | %14
 x D D2 x2 | x F x2 |] %16
V:3
 [F,A,]2 | [F,A,][F,A,] [F,A,][F,A,] F,F, | [F,C][F,C] [F,A,]2!pp! [F,A,]2 | %3
 [F,A,][C,C] [C,G,]2 z2 | (C,2 [A,C]2)!mf! [C,C]2 | [C,B,][C,B,] [C,B,][C,B,] [C,A,][C,A,] | %6
 [C,G,][C,F,] [C,G,]2!pp! [C,C]2 | [F,C][F,=B,] [F,C]2 z2 | (F,2 [A,C]2)!mf! [F,A,]2 | %9
 [F,F][F,F] [F,F][F,F] [B,E][A,F] | [E,C][F,C] C2!pp! [A,C]2 | B,B, B,2 z2 | %12
 (B,,2 [D,G,B,]2)!mf! [G,B,]2 | [G,D][G,D] [G,D][G,D] [^F,D][G,D] | %14
 [G,D][G,B,] [B,,B,]2!pp! [C,B,]2 | [C,B,][F,A,] [F,A,]2 |] %16
V:4
 x2 | x4 F,F, | x6 | x6 | x6 | x6 | x6 | x6 | x6 | x6 | x2 C2 x2 | B,B, B,2 x2 | x6 | x6 | x6 | %15
 x4 |] %16

